libs/ui/packages/crypto-icons/src/svg/BLOCK.svg

<svg width="24" height="24" viewBox="0 0 24 24" fill="none">
<path fill-rule="evenodd" clip-rule="evenodd" d="M8.26649 5.25H15.9375L19.875 12L15.9375 18.75H8.19824L12.0682 12L8.26574 5.25H8.26649ZM12.339 7.6245L14.8522 12L12.3397 16.3755H14.5807L17.0917 12L14.5792 7.6245H12.3397H12.339Z" fill="#101341"/>
<path opacity="0.5" fill-rule="evenodd" clip-rule="evenodd" d="M9.08475 8.2695L6.90825 12L9.06525 15.6975L7.686 18.1042L4.125 12L7.71675 5.84175L9.08475 8.2695Z" fill="#101341"/>
<path fill-rule="evenodd" clip-rule="evenodd" d="M8.26649 5.25H15.9375L19.875 12L15.9375 18.75H8.19824L12.0682 12L8.26574 5.25H8.26649ZM12.339 7.6245L14.8522 12L12.3397 16.3755H14.5807L17.0917 12L14.5792 7.6245H12.3397H12.339Z" fill="#101341"/>
<path opacity="0.5" fill-rule="evenodd" clip-rule="evenodd" d="M9.08475 8.2695L6.90825 12L9.06525 15.6975L7.686 18.1042L4.125 12L7.71675 5.84175L9.08475 8.2695Z" fill="#101341"/>
</svg>

<svg width="24" height="24" viewBox="0 0 24 24" fill="none"><path fill="#101341" fill-rule="evenodd" d="M8.266 5.25h7.672L19.875 12l-3.937 6.75h-7.74l3.87-6.75zm4.073 2.375L14.852 12l-2.512 4.375h2.24L17.093 12 14.58 7.625z" clip-rule="evenodd"/><path fill="#101341" fill-rule="evenodd" d="M9.085 8.27 6.908 12l2.157 3.698-1.379 2.406L4.125 12l3.592-6.158z" clip-rule="evenodd" opacity=".5"/><path fill="#101341" fill-rule="evenodd" d="M8.266 5.25h7.672L19.875 12l-3.937 6.75h-7.74l3.87-6.75zm4.073 2.375L14.852 12l-2.512 4.375h2.24L17.093 12 14.58 7.625z" clip-rule="evenodd"/><path fill="#101341" fill-rule="evenodd" d="M9.085 8.27 6.908 12l2.157 3.698-1.379 2.406L4.125 12l3.592-6.158z" clip-rule="evenodd" opacity=".5"/></svg>
